X:1
T:Susie McGuire
M:3/4
L:1/8
K:G
L:1/8
D|D2 A|A3 B c2|B2 A2 G2|E2 D2 C2|(D6|D6|D4) A2|
|:A2 B2 c2|d4 d2|c4 c2|B4 AG|c4 B2|(A6|A6|A6):|
F2 G2 A2|G4 F2|D6|(D6|D6|D4):|
